X:1
T:Ne'er trouble thyself
T:Matthew Locke (1621or 1622 to  1677)
T:From John Playford's "Musical Companion" 1667
T:Ne'er trouble thyself
T:Glee
T:Copyright © 
T:Copyright © 
T:Copyright © 
C:Matthew Locke (1621or 1622 to  1677)
Z:From John Playford's "Musical Companion" 1667
Z:Copyright ©
%%score [ 1 2 3 ]
L:1/8
M:3/4
K:G
V:1 treble nm="P1"
V:2 treble nm="P2"
V:3 bass nm="P3"
V:1
 (Bc) | d2 d3 e | A3 A B2 | G3 F G2 | A2 A3 F | G2 G2 (AB) | c3 c B2 | B2 e3 f | ^d4 d2 | %9
w: Ne'er *|troub- le thy-|self a- bout|times or their|tur- nings, af-|flic- tions run _|cir- cu- lar|and wheel a-|bout; a-|
 e2 e2 f2 | g3 f e2 | e2 e2 =f2 | (d3 ^c) d2 | d>d e2 d>B | (A2 G2) c2 | B>A (B2 A2) | %16
w: way with thy|mur- mur- ing|and thy heart|burn- * ing.|With the juice of the|grape _ we'll|quench the fire _|
 !fermata!G4 || d2 | B3 e ^d2 | e2 B2 ^c2 | d2 ^c3 f | ^d2 B2 f2 | g3 g f2 | e4 d2 | c4 B^c | %25
w: out.|Ne'er|chain or im-|pri- son thy|soul up in|sor- row, what|fails us to-|day, to|day may be-|
 d2 d3 ^c | d2 d2 z2 | z4 d2 | g3 g f2 | e3 e d2 | e2 A3 A | B2 B2 |] %32
w: friend us to-|mor- row.|What|fails us to-|day may be-|friend us to|mor- row.|
V:2
 (GA) | B2 B3 c | d3 d d2 | (ed) (cB) (cd) | F2 F3 A | B3 c d2 | G3 G F2 | G2 A3 A | B4 B2 | %9
w: Ne'er *|troub- le thy-|self a- bout|times * or _ their *|tur- nings, af-|flic- tions run|cir- cu- lar|and wheel a-|bout; a-|
 B2 ^c2 ^d2 | e3 B G2 | c2 B2 c2 | (A3 G) F2 | B>A G2 F>G | E4 F2 | G>G (G2 F2) | !fermata!G4 || %17
w: way with thy|mur- mur- ing|and thy heart|burn- * ing.|With the juice of the|grape we'll|quench the fire _|out.|
 F2 | G3 G F2 | E2 (EF) (GA) | B2 B3 ^A | B2 B2 ^d2 | e3 e (dB) | G4 ^G2 | A3 A B2 | A2 G3 A | %26
w: Ne'er|chain or im-|pri- son * thy *|soul up in|sor- row, what|fails us to- *|day t-|day, may be-|friend us to-|
 F2 F2 A2 | B3 B A2 | c2 B3 B | B2 A3 G | G4 F>F | G2 G2 |] %32
w: mor- row. What|fails us to-|day, us to-|day may be|friend us to-|mor- row.|
V:3
 G,,2 | G,2 G,3 G, | F,3 F, G,2 | E,3 D, E,2 | D,2 D,3 D, | G,2 G,2 F,2 | E,3 E, ^D,2 | %7
w: Ne'er|troub- le thy-|self a- bout|times or their|tur- nings, af-|flic- tions run|cir- cu- lar|
 E,2 C,3 C, | B,,4 B,A, | G,3 G, F,2 | E,3 ^D, E,2 | A,2 G,2 A,2 | (^F,3 E,) D,2 | %13
w: and wheel a-|bout; a- *|way with thy|mur- mur- ing|and thy heart|burn- * ing.|
 G,>F, E,2 B,,>B,, | C,4 D,2 | E,>C, D,4 | !fermata!G,,4 || D,2 | G,3 A, B,2 | E,2 E,2 E,2 | %20
w: With the juice of the|grape we'll|quench the fire|out.|Ne'er|chain or im-|pri- son thy|
 F,2 F,3 F, | B,,2 B,,2 z2 | z4 B,2 | C3 C B,2 | A,3 A, G,2 | F,2 E,3 E, | D,2 D,2 D,2 | %27
w: soul up in|sor- row,|what|fails us to|day may be-|friend us to-|mor- row. What|
 G,3 G, F,2 | E,4 D,2 | C,3 C, B,,2 | C,2 D,3 D, | G,,2 G,,2 |] %32
w: fails us to-|day, to-|day may be-|friend us to-|mor- row.|

